build/img/icon-category/icon-category-20.svg

<svg width="25" height="25" viewBox="0 0 25 25" fill="none" xmlns="http://www.w3.org/2000/svg">
<path d="M14.1458 6.61978L6.99887 1.87279C6.20299 1.34379 5.14315 1.44879 4.4657 2.12279L2.08105 4.49878L10.5969 10.1558" stroke="#2C8ECC" stroke-width="2" stroke-miterlimit="10"/>
<path d="M18.4043 10.8628L23.1686 17.9838C23.6995 18.7768 23.5941 19.8328 22.9177 20.5078L20.533 22.8838L14.8555 14.3988" stroke="#2C8ECC" stroke-width="2" stroke-miterlimit="10"/>
<path d="M5.9171 15.8038L1.57938 15.4658C0.650012 15.3948 0.134142 16.5138 0.792528 17.1698L3.407 19.7558L5.9171 15.8038Z" fill="#2C8ECC"/>
<path d="M9.18708 19.0618L9.52631 23.3838C9.59756 24.3098 8.4745 24.8238 7.81611 24.1678L5.2207 21.5628L9.18708 19.0618Z" fill="#2C8ECC"/>
<path d="M11.8809 17.3618L4.03049 22.3138C3.13424 22.8498 2.11555 21.8348 2.6535 20.9418L7.62351 13.1198L17.4371 3.34177C18.6133 2.16977 20.5192 2.16977 21.6955 3.34177C22.8718 4.51377 22.8718 6.41277 21.6955 7.58477L11.8809 17.3618Z" stroke="#2C8ECC" stroke-width="2" stroke-miterlimit="10" stroke-linecap="square"/>
</svg>

<svg width="25" height="25" fill="none" xmlns="http://www.w3.org/2000/svg"><path d="M14.146 6.62L6.999 1.873a2.013 2.013 0 00-2.533.25L2.08 4.499l8.516 5.657m7.808.707l4.765 7.12c.53.794.425 1.85-.251 2.525l-2.385 2.376-5.678-8.485" stroke="#2C8ECC" stroke-width="2" stroke-miterlimit="10"/><path d="M5.917 15.804l-4.338-.338C.65 15.395.134 16.514.793 17.17l2.614 2.586 2.51-3.952zm3.27 3.258l.34 4.322c.07.926-1.052 1.44-1.71.784L5.22 21.563l3.966-2.501z" fill="#2C8ECC"/><path d="M11.88 17.362l-7.85 4.952c-.896.536-1.914-.48-1.377-1.372l4.97-7.822 9.814-9.778a3.018 3.018 0 014.258 0 2.992 2.992 0 010 4.243l-9.814 9.777z" stroke="#2C8ECC" stroke-width="2" stroke-miterlimit="10" stroke-linecap="square"/></svg>
